icons/newspaper-line.svg

<svg xmlns="http://www.w3.org/2000/svg" width="24" height="24" fill="none"><g clip-path="url(#a)"><g><path fill="#121212" d="M16 20V4H4V19C4 19.2652 4.10536 19.5196 4.29289 19.7071C4.48043 19.8946 4.73478 20 5 20H16ZM19 22H5C4.20435 22 3.44129 21.6839 2.87868 21.1213C2.31607 20.5587 2 19.7956 2 19V3C2 2.73478 2.10536 2.48043 2.29289 2.29289C2.48043 2.10536 2.73478 2 3 2H17C17.2652 2 17.5196 2.10536 17.7071 2.29289C17.8946 2.48043 18 2.73478 18 3V10H22V19C22 19.7956 21.6839 20.5587 21.1213 21.1213C20.5587 21.6839 19.7956 22 19 22ZM18 12V19C18 19.2652 18.1054 19.5196 18.2929 19.7071C18.4804 19.8946 18.7348 20 19 20C19.2652 20 19.5196 19.8946 19.7071 19.7071C19.8946 19.5196 20 19.2652 20 19V12H18ZM6 6H12V12H6V6ZM8 8V10H10V8H8ZM6 13H14V15H6V13ZM6 16H14V18H6V16Z"/></g></g><defs><clipPath id="a"><rect width="24" height="24" fill="white"/></clipPath></defs></svg>

<svg width="24" height="24" fill="none" xmlns="http://www.w3.org/2000/svg"><g clip-path="url(#a)"><path d="M16 20V4H4v15a1 1 0 0 0 1 1h11Zm3 2H5a3 3 0 0 1-3-3V3a1 1 0 0 1 1-1h14a1 1 0 0 1 1 1v7h4v9a3 3 0 0 1-3 3Zm-1-10v7a1 1 0 0 0 2 0v-7h-2ZM6 6h6v6H6V6Zm2 2v2h2V8H8Zm-2 5h8v2H6v-2Zm0 3h8v2H6v-2Z" /></g><defs><clipPath id="a"><path fill="#fff" d="M0 0h24v24H0z"/></clipPath></defs></svg>
